X: 1
T: For Jody
C: Ruth Anne Fraley 2015
N: for the dance "A Legacy of Love" by Jens Dill, first performed 2015-6-19
N: "written June 16, 2015 by Ruth Anne Fraley In Memory of Jody Distler-Dill"
N: "Tempo: not too fast. The figures in the B part have a lot of movement in them and feel rushed at a quicker tempo."
S: http://jody.wellhall.org/legacyoflove 2015-9-11
R: waltz
Z: 2015 John Chambers <jc:trillian.mit.edu>
M: 3/4
L: 1/8
K: D
|:\
"D"D3 E D2 | "A/C#"A4 A2 | "G/B"G4 AG | "A/C#"E4 E2 |\
"D"F3 E D2 | "F#m"A4 A2 | "G"B2 A2 F2 | "Asus4"A4 "A"A2 |
"G"B3 c d2 | "D/F#"d2 A2 F2 | "G"B2 A2 F2 | "Asus4"E4 "A"E2 |\
"Bm"F3 E D2 | "G"B,2 G,2 B,2 | "A7"A,6- | A,4-A,2 :|
|:\
"D"D3 E FG | "A"A4 A2 | "G"d3 c B2 | "D/F#"A4 A2 |\
"G"d3 c d2 | "D/F#"d2 A2 d2 | "G"B2 c2 d2 | "A"e2 f2 g2 |
"Bm"f3 e d2 | "G"d2 B2 d2 | "A"e4 fg | "Bm"f4 f2 |\
"G"g3 f ed | "A"e2 d2 c2 | "G"d6- | "D"d6 :|
